X: 1
T: Dairy Maid, The
M: 4/4
L: 1/8
D: First Through the Gate, Brian Conway
K: D
dB|A~F3 D2 dB|AFDE FEEB|A~F3 dBAF|(3EFE DE FDDB|
A~F3 DFBF|AFDE FEEF|[A3F3]d BdAF|(3EFE DE FD D2||
dcdf abag|fgeg fdBc|dcdf adfa|bgeg fd{e}dc|
dfaf g2 ag|fgeg fdBc|defg a^gab|afeg fd d2||
